src/assets/svg/email.svg

<svg viewBox="0 0 25 26" fill="none" xmlns="http://www.w3.org/2000/svg">
<g id="Frame" clip-path="url(#clip0_1_2296)">
<path id="Vector" d="M3.05562 3.84192L21.2307 3.84192C21.4985 3.84192 21.7553 3.9483 21.9447 4.13766C22.134 4.32702 22.2404 4.58385 22.2404 4.85165V21.0073C22.2404 21.2751 22.134 21.5319 21.9447 21.7213C21.7553 21.9106 21.4985 22.017 21.2307 22.017H3.05562C2.78783 22.017 2.531 21.9106 2.34164 21.7213C2.15228 21.5319 2.0459 21.2751 2.0459 21.0073L2.0459 4.85165C2.0459 4.58385 2.15228 4.32702 2.34164 4.13766C2.531 3.9483 2.78783 3.84192 3.05562 3.84192ZM20.221 8.12114L12.2159 15.2902L4.06535 8.09893L4.06535 19.9975H20.221V8.12114ZM4.58132 5.86137L12.2048 12.5882L19.7181 5.86137L4.58132 5.86137Z" fill="white"/>
</g>
<defs>
<clipPath id="clip0_1_2296">
<rect width="24.2334" height="24.2334" fill="white" transform="translate(0.0267944 0.812744)"/>
</clipPath>
</defs>
</svg>

<svg viewBox="0 0 25 26" fill="none" xmlns="http://www.w3.org/2000/svg"><g clip-path="url(#a)"><path d="M3.056 3.842H21.23a1.01 1.01 0 0 1 1.01 1.01v16.155a1.01 1.01 0 0 1-1.01 1.01H3.056a1.01 1.01 0 0 1-1.01-1.01V4.852a1.01 1.01 0 0 1 1.01-1.01m17.165 4.28-8.005 7.168-8.15-7.19v11.898H20.22zm-15.64-2.26 7.624 6.726 7.513-6.727z" fill="#fff"/></g><defs><clipPath id="a"><path fill="#fff" d="M.027.813H24.26v24.233H.027z"/></clipPath></defs></svg>
